X:0193
T:Quick Step 32d. Regt.
M:6/8
L:1/8
Q:3/8=86
I: :: ::
Z:Jack Campin * www.campin.me.uk * 2009
K:G
d| g2G gfe|d2d dcB|c2c cac |B2B B2
A| Bcd ABc|Bcd efg|fed Ad^c|dAF D2:|
d|=f2f fed|cAA A2B|cde edc |BGG G2
d| efg Bcd|FGA Ddc|Bdg BcA |GAG G2:|

